app/images/dist/lighting-icon.svg

<svg width="32" height="38" viewBox="0 0 32 38" fill="none" xmlns="http://www.w3.org/2000/svg">
<path d="M17.6661 2.33331L2.82187 20.1465C2.24052 20.844 1.94986 21.1928 1.94541 21.4875C1.94154 21.7435 2.05567 21.9871 2.25487 22.1481C2.48402 22.3333 2.93807 22.3333 3.84617 22.3333H15.9995L14.3328 35.6666L29.177 17.8535C29.7583 17.156 30.049 16.8071 30.0535 16.5125C30.0573 16.2565 29.9433 16.0128 29.744 15.8518C29.5148 15.6666 29.0608 15.6666 28.1528 15.6666H15.9995L17.6661 2.33331Z" stroke="white" stroke-width="3" stroke-linecap="round" stroke-linejoin="round"/>
</svg>

<svg width="32" height="38" fill="none" xmlns="http://www.w3.org/2000/svg"><path d="M17.666 2.333 2.822 20.146c-.581.698-.872 1.047-.877 1.341-.003.257.11.5.31.661.229.185.683.185 1.591.185H16l-1.667 13.334 14.844-17.814c.581-.697.872-1.046.877-1.34a.833.833 0 0 0-.31-.661c-.23-.185-.683-.185-1.591-.185H16l1.666-13.334Z" stroke="#fff" stroke-width="3" stroke-linecap="round" stroke-linejoin="round"/></svg>
